.local/share/icons/Gruvbox-Plus-Dark/apps/16/asc-de.svg

<svg width="16" height="16" version="1.1" xmlns="http://www.w3.org/2000/svg">
  <defs>
    <style id="current-color-scheme" type="text/css">.ColorScheme-Text { color:#ebdbb2; } .ColorScheme-Highlight { color:#458588; }</style>
  </defs>
  <path class="ColorScheme-Text" d="m0.637 4.184 6.571-3.033c0.437-0.201 1.147-0.201 1.584 0l6.572 3.033c0.437 0.202 0.437 0.53 0 0.731l-6.572 3.033c-0.437 0.202-1.147 0.202-1.584 0l-6.571-3.033c-0.438-0.201-0.438-0.529 0-0.731zm2.351 2.398-2.103 0.971c-0.577 0.266-0.577 0.695 0 0.961l6.074 2.803c0.577 0.266 1.505 0.266 2.082 0l6.074-2.803c0.577-0.266 0.577-0.695 0-0.961l-2.103-0.971-3.971 1.832c-0.577 0.267-1.505 0.267-2.082 0l-3.971-1.832zm0 3.483-2.103 0.971c-0.577 0.266-0.577 0.695 0 0.961l6.074 2.803c0.577 0.267 1.505 0.267 2.082 0l6.074-2.803c0.577-0.266 0.577-0.695 0-0.961l-2.103-0.971-3.971 1.832c-0.577 0.267-1.505 0.267-2.082 0l-3.971-1.832z" fill="currentColor"/>
</svg>

<svg xmlns="http://www.w3.org/2000/svg" style="isolation:isolate" width="16" height="16" viewBox="0 0 16 16">
 <defs>
  <style id="current-color-scheme" type="text/css">
   .ColorScheme-Text { color:#ebdbb2; } .ColorScheme-Highlight { color:#458588; }
  </style>
  <linearGradient id="arrongin" x1="0%" x2="0%" y1="0%" y2="100%">
   <stop offset="0%" style="stop-color:#d79921; stop-opacity:1"/>
   <stop offset="100%" style="stop-color:#b57614; stop-opacity:1"/>
  </linearGradient>
  <linearGradient id="aurora" x1="0%" x2="0%" y1="0%" y2="100%">
   <stop offset="0%" style="stop-color:#83a598; stop-opacity:1"/>
   <stop offset="100%" style="stop-color:#b16286; stop-opacity:1"/>
  </linearGradient>
  <linearGradient id="fitdance" x1="0%" x2="0%" y1="0%" y2="100%">
   <stop offset="0%" style="stop-color:#8ec07c; stop-opacity:1"/>
   <stop offset="100%" style="stop-color:#458588; stop-opacity:1"/>
  </linearGradient>
  <linearGradient id="oomox" x1="0%" x2="0%" y1="0%" y2="100%">
   <stop offset="0%" style="stop-color:#458588; stop-opacity:1"/>
   <stop offset="100%" style="stop-color:#928374; stop-opacity:1"/>
  </linearGradient>
  <linearGradient id="rainblue" x1="0%" x2="0%" y1="0%" y2="100%">
   <stop offset="0%" style="stop-color:#b8bb26; stop-opacity:1"/>
   <stop offset="100%" style="stop-color:#076678; stop-opacity:1"/>
  </linearGradient>
  <linearGradient id="sunrise" x1="0%" x2="0%" y1="0%" y2="100%">
   <stop offset="0%" style="stop-color: #fe8019; stop-opacity:1"/>
   <stop offset="100%" style="stop-color: #fabd2f; stop-opacity:1"/>
  </linearGradient>
  <linearGradient id="telinkrin" x1="0%" x2="0%" y1="0%" y2="100%">
   <stop offset="0%" style="stop-color: #83a598; stop-opacity:1"/>
   <stop offset="100%" style="stop-color: #83a598; stop-opacity:1"/>
  </linearGradient>
  <linearGradient id="60spsycho" x1="0%" x2="0%" y1="0%" y2="100%">
   <stop offset="0%" style="stop-color: #fb4934; stop-opacity:1"/>
   <stop offset="25%" style="stop-color: #fabd2f; stop-opacity:1"/>
   <stop offset="50%" style="stop-color: #fe8019; stop-opacity:1"/>
   <stop offset="100%" style="stop-color: #689d6a; stop-opacity:1"/>
  </linearGradient>
  <linearGradient id="90ssummer" x1="0%" x2="0%" y1="0%" y2="100%">
   <stop offset="0%" style="stop-color: #b16286; stop-opacity:1"/>
   <stop offset="20%" style="stop-color: #8ec07c; stop-opacity:1"/>
   <stop offset="50%" style="stop-color: #fabd2f; stop-opacity:1"/>
   <stop offset="100%" style="stop-color: #458588; stop-opacity:1"/>
  </linearGradient>
  <linearGradient id="cyberneon" x1="0%" x2="0%" y1="0%" y2="100%">
    <stop offset="0" style="stop-color:#83a598; stop-opacity:1"/>
    <stop offset="1" style="stop-color:#b16286; stop-opacity:1"/>
  </linearGradient>
  <clipPath id="_clipPath_H66uQ9N5x7cvnpcI1UgTX67Z10Yyhw5o">
   <rect width="16" height="16"/>
  </clipPath>
 </defs>
 <g clip-path="url(#_clipPath_H66uQ9N5x7cvnpcI1UgTX67Z10Yyhw5o)">
  <rect style="fill:currentColor" class="ColorScheme-Text" width="4.625" height="3.594" x="17.09" y="-.09" transform="matrix(1,0,0,1,0,0)"/>
  <path style="fill:currentColor" class="ColorScheme-Text" fill-rule="evenodd" d="M 0.637 4.184 L 7.208 1.151 C 7.645 0.95 8.355 0.95 8.792 1.151 L 15.364 4.184 C 15.801 4.386 15.801 4.714 15.364 4.915 L 8.792 7.948 C 8.355 8.15 7.645 8.15 7.208 7.948 L 0.637 4.915 C 0.199 4.714 0.199 4.386 0.637 4.184 Z M 2.988 6.582 L 0.885 7.553 C 0.308 7.819 0.308 8.248 0.885 8.514 L 6.959 11.317 C 7.536 11.583 8.464 11.583 9.041 11.317 L 15.115 8.514 C 15.692 8.248 15.692 7.819 15.115 7.553 L 13.012 6.582 L 9.041 8.414 C 8.464 8.681 7.536 8.681 6.959 8.414 L 2.988 6.582 Z M 2.988 10.065 L 0.885 11.036 C 0.308 11.302 0.308 11.731 0.885 11.997 L 6.959 14.8 C 7.536 15.067 8.464 15.067 9.041 14.8 L 15.115 11.997 C 15.692 11.731 15.692 11.302 15.115 11.036 L 13.012 10.065 L 9.041 11.897 C 8.464 12.164 7.536 12.164 6.959 11.897 L 2.988 10.065 Z"/>
 </g>
</svg>
